!!!COM: Pe&ntilde;alosa, Francisco de
!!!CDT: ~1470-1528/04/01
!!!COA: Josquin des Prez
!!!CDT: ~1450-1521/08/27
!!!OTL@@LAT: Sancta mater istud agas
!!!OTL@ENG: Holy Mother! pierce me through
!!!AGN: Motet
!!!SCT: NJE 25.8
!!!SCA: New Josquin Edition 25.8
!!!voices: 4
**kern	**kern	**kern	**kern
*staff4	*staff3	*staff2	*staff1
*Ivox	*Ivox	*Ivox	*Ivox
*I"Bassus	*I"Tenor	*I"Altus	*I"Superius
*I'B	*I'T	*I'A	*I'S
*clefF4	*clefGv2	*clefGv2	*clefG2
*k[]	*k[]	*k[]	*k[]
*M2/1	*M2/1	*M2/1	*M2/1
*met(C|)	*met(C|)	*met(C|)	*met(C|)
=1-	=1-	=1-	=1-
0D	0r	0r	0r
=2	=2	=2	=2
1D	0r	0r	0r
1C	.	.	.
=3	=3	=3	=3
2D\	0A	0r	0r
2.F\	.	.	.
4E\	.	.	.
[2D\	.	.	.
=4	=4	=4	=4
4D\]	1A	0r	0r
4C/	.	.	.
2AA/	.	.	.
1BB	1G	.	.
=5	=5	=5	=5
0AA	2A/	0e	0r
.	2.c\	.	.
.	4B\	.	.
.	[2A/	.	.
=6	=6	=6	=6
0r	4A/]	1e	1a
.	4G/	.	.
.	4F/	.	.
.	4E/	.	.
.	1F	1d	1a
=7	=7	=7	=7
0r	0E	1e	1g
.	.	2c\	2a/
.	.	2d\	[2b\
=8	=8	=8	=8
1E	0r	2e\	4b\]
.	.	.	4a/
.	.	2A/	1a
1E	.	1B	.
.	.	.	2g#i/
=9	=9	=9	=9
1AA	1r	0A	1.a
1D	1F	.	.
.	.	.	4g/
.	.	.	4f/
=10	=10	=10	=10
2C/	2G/	0r	2e/
2AA/	1A	.	1f
1BB	.	.	.
.	2G/	.	4e/
.	.	.	4d/
=11	=11	=11	=11
0AA	2A/	0r	2c/
.	2D/	.	1d
.	1E	.	.
.	.	.	2c#i/
=12	=12	=12	=12
0r	0D	1r	0d
.	.	1A	.
=13	=13	=13	=13
1D	0r	1A	0r
1D	.	[1d	.
=14	=14	=14	=14
0G	0r	2d\]	0r
.	.	2c\	.
.	.	1B	.
=15	=15	=15	=15
1E	0r	1r	0r
1r	.	1c	.
=16	=16	=16	=16
1F	0r	1d	0r
1G	.	[1e	.
=17	=17	=17	=17
1.A	0r	2e\]	0r
.	.	2d\	.
.	.	2c\	.
2G\	.	2B\	.
=18	=18	=18	=18
2F\	0r	1.A	0r
2E\	.	.	.
1D	.	.	.
.	.	[2d\	.
=19	=19	=19	=19
1E	0r	2d\]	0r
.	.	2c\	.
1D	.	[1d	.
=20	=20	=20	=20
0F	0r	2d\]	0r
.	.	4c\	.
.	.	4B\	.
.	.	1A	.
=21	=21	=21	=21
1E	0r	2B\	0r
.	.	2.c\	.
1C	.	.	.
.	.	4d\	.
.	.	2e\	.
=22	=22	=22	=22
1D	0r	2A/	0r
.	.	2.B\	.
1E	.	.	.
.	.	4G/	.
.	.	[2c\	.
=23	=23	=23	=23
1AA	0r	4c\]	0r
.	.	4B\	.
.	.	2.A/	.
1C	.	.	.
.	.	4G/	.
.	.	4E/	.
.	.	4F/	.
=24	=24	=24	=24
0BB	0r	2G/	0r
.	.	1A	.
.	.	2G#i/	.
=25	=25	=25	=25
[0AA	1r	0A	0r
.	1E	.	.
=26	=26	=26	=26
0AA]	1E	0r	0r
.	1F	.	.
=27	=27	=27	=27
0r	1E	0r	1e
.	[1A	.	1e
=28	=28	=28	=28
0r	2A/]	0r	1f
.	2F/	.	.
.	1G	.	1e
=29	=29	=29	=29
0r	1A	0r	1r
.	1c	.	[1a
=30	=30	=30	=30
0r	0B	0r	2a/]
.	.	.	2f/
.	.	.	1g
=31	=31	=31	=31
0r	1A	0r	0a
.	[1d	.	.
=32	=32	=32	=32
1D	2d\]	0r	1f
.	2c\	.	.
2F\	2A/	.	1f
2G\	2B\	.	.
=33	=33	=33	=33
1A	2c\	0r	1e
.	2.A/	.	.
1AA	.	.	1c
.	4G/	.	.
.	2E/	.	.
=34	=34	=34	=34
2r	2F/	0r	2d/
1C	2G/	.	1e
.	[1A	.	.
2D\	.	.	4d/
.	.	.	4c/
=35	=35	=35	=35
2E\	2A/]	0r	2B/
2F\	4G#i/	.	2A/
.	4F#i/	.	.
1E	1G#i	.	1B
=36	=36	=36	=36
1.AA	[0A	1r	0A
.	.	1e	.
2BB/	.	.	.
=37	=37	=37	=37
2C/	0A]	2e\	0r
1D	.	1f	.
4C/	.	4e\	.
4BB/	.	4d\	.
=38	=38	=38	=38
2AA/	0r	2.c\	1a
1A	.	.	.
.	.	4B\	.
.	.	4c\	1a
.	.	4d\	.
4G\	.	[2e\	.
4F\	.	.	.
=39	=39	=39	=39
2E\	1G	4e\]	0g
.	.	4c\	.
2D\	.	1d	.
1E	1G	.	.
.	.	2c#i\	.
=40	=40	=40	=40
0D	1.A	0d	1f
.	.	.	[1a
.	4G/	.	.
.	4F/	.	.
=41	=41	=41	=41
0C	1E	1r	2a/]
.	.	.	4g/
.	.	.	4f/
.	1E	[1G	2e/
.	.	.	[2g/
=42	=42	=42	=42
0BB	0D	1G]	2g/]
.	.	.	4f/
.	.	.	4e/
.	.	1G	1d
=43	=43	=43	=43
[0AA	0E	0A	[0c
=44	=44	=44	=44
0AA]	0A	1r	0c]
.	.	1e	.
=45	=45	=45	=45
1r	0r	1d	0r
1A	.	2e\	.
.	.	2c\	.
=46	=46	=46	=46
1G	0r	1B	1r
2A\	.	1A	1a
2F\	.	.	.
=47	=47	=47	=47
1E	1r	0r	1g
1D	1d	.	2a/
.	.	.	2f/
=48	=48	=48	=48
0r	1c	1A	1e
.	2d\	1B	1d
.	2B\	.	.
=49	=49	=49	=49
1AA	1A	1c	0r
1BB	1G	1d	.
=50	=50	=50	=50
1C	1r	2r	1e
.	.	2c\	.
1D	1A	2A/	1f
.	.	[2d\	.
=51	=51	=51	=51
0r	1B	4d\]	1g
.	.	4c\	.
.	.	2d\	.
.	1c	1e	1a
=52	=52	=52	=52
1D	1d	2f\	1r
.	.	4e\	.
.	.	4d\	.
[1A	1e	[1c	[1a
=53	=53	=53	=53
1A]	2c\	2c\]	2a/]
.	2c\	2A/	2a/
1F	1A	2c\	1a
.	.	2d\	.
=54	=54	=54	=54
0E	0B	0e	0g
=55	=55	=55	=55
0r	1A	0r	1a
.	2A/	.	2f/
.	[2B\	.	[2g/
=56	=56	=56	=56
1r	4B\]	0r	4g/]
.	4c\	.	4f/
.	1d	.	2d/
1A	.	.	1e
.	2c#i\	.	.
=57	=57	=57	=57
2F\	0d	0r	0d
2G\	.	.	.
2F\	.	.	.
[2G\	.	.	.
=58	=58	=58	=58
2G\]	0r	1d	0r
4F\	.	.	.
4E\	.	.	.
1D	.	1f	.
=59	=59	=59	=59
2r	0r	1e	0r
2A\	.	.	.
2F\	.	2A/	.
[2G\	.	[2B\	.
=60	=60	=60	=60
4G\]	0r	4B\]	0r
4F\	.	4c\	.
2D\	.	1d	.
1E	.	.	.
.	.	2c#i\	.
=61	=61	=61	=61
0D	0r	0d	0r
=62	=62	=62	=62
1r	1r	1r	1r
[1AA	[1A	[1c	[1e
=63	=63	=63	=63
2AA/]	2A/]	2c\]	2e/]
2AA/	2A/	2c\	2e/
1D	1A	1d	1f
=64	=64	=64	=64
0AA	0A	0c	0e
=65	=65	=65	=65
1r	1r	1r	1r
[1E	[1B	[1e	[1g
=66	=66	=66	=66
2E\]	2B\]	2e\]	2g/]
2E\	2B\	2e\	2g/
1F	1A	1d	1a
=67	=67	=67	=67
0E	0B	0e	0g
=68	=68	=68	=68
1r	1r	1r	1r
[1F	[1A	[1c	[1a
=69	=69	=69	=69
2F\]	2A/]	2c\]	2a/]
2F\	2A/	2d\	2a/
1E	2.B\	1e	1g
.	4c\	.	.
=70	=70	=70	=70
0D	0d	0A	0f
=71	=71	=71	=71
1r	1r	1r	1r
1E	1B	1e	[1g
=72	=72	=72	=72
1C	1c	1e	2g/]
.	.	.	2g/
1D	1A	1d	1f
=73	=73	=73	=73
1.AA	0A	2c\	[0e
.	.	1A	.
2BB/	.	4G/	.
.	.	4F/	.
=74	=74	=74	=74
2C/	2G/	2E/	0e_
2AA/	2c\	1A	.
1E	1B	.	.
.	.	2G/	.
=75	=75	=75	=75
1r	2c\	2A/	0e]
.	1A	2c\	.
1E	.	1B	.
.	2G#i/	.	.
=76	=76	=76	=76
0AA	0A	0c	1r
.	.	.	1e
=77	=77	=77	=77
0BB	0D	0d	0g
=78	=78	=78	=78
0AA	0E	0c	0a
=79	=79	=79	=79
0D	0F	2r	1a
.	.	1d	.
.	.	.	1a
.	.	4c\	.
.	.	4B\	.
=80	=80	=80	=80
1D	1F	2A/	1f
.	.	2B\	.
1C	1G	[1c	[1e
=81	=81	=81	=81
1AA	1A	2c\]	2e/]
.	.	1A	2d/
1BB	1D	.	[1d
.	.	2G/	.
=82	=82	=82	=82
0AA	0E	[0A	1d]
.	.	.	1c#i
=83	=83	=83	=83
1r	1.D	0A]	[0d
[1D	.	.	.
.	2E/	.	.
=84	=84	=84	=84
1D]	1F	1r	0d_
1GG	[1G	[1B-	.
=85	=85	=85	=85
0BB-	2G/]	2B-\]	0d]
.	2F/	2A/	.
.	1D	2F/	.
.	.	2G/	.
=86	=86	=86	=86
0AA	0E	0A	0c#i
=87	=87	=87	=87
0Dl	0Dl	0Al	0dl
==	==	==	==
*-	*-	*-	*-
!!!RDF**kern: l=long note in original notation
!!!RDF**kern: i=editorial accidental
!!!ENC:	Victoria Chang
!!!END:	2011/03/23/
!!!SMS: Antonowycz and Elders: Werken, Supplement No. 8, afl. 55. 
!!!SMS: Eslava, Hilarion. "Lira sacro-hispana, siglo xvi, 1st series". Vol. 1 (Madrid, 1869). pp. 29-33. 
!!!SMS1:Elustiza, Juan B. and Hernandez, G. Castrillo. "Antologia musical: Siglo
!!!SMS2:de oro de la musica liturgica de Espana" (Barcelona 1933), pp. 16-19. 
!!!SMS: Preciado, Dionisio. "Francisco de Penalosa, Opera Omnia. Vol. 1: Motetes." (Madrid 1986). pp. 123-129.
!!!EED:	Jesse Rodin
!!!EEV:	2011/04/03/
!!attribution-level@Jos: 4 (questionable)
!!!ONB:	Translated from MusicXML and edited on 2011/04/03/ by Craig Sapp
!!muse2ps: C^Penalosa/@{COA}?\n@{SCT}^I150v90,90,90,150c100Q16
!!onb: Changed NJE number from 25.7 to 25.8 [2011/04/03/]
